X: 2
T: Miss Catherine Stewart Of Pittyvaich's
R: slide
M: 12/8
L: 1/8
K: Fmaj
F2d cAF GAF E2C|F2d cAF cde f2c|def cAF GAF E2G|F2d cAF CDE [F3C3]:|
fcf agf egb bge|fcf agf efg cBA|[dF]Bd [cF]BA [GD]A[F=B,G,] [E_B,G,]DC|F2d cAF CDE [F3A,3]|
fcf agf egb bge|fcf agf def cBA|[dF]Bd [cF]BA [GD]A[F=B,G,] [E_B,G,]DC|F2d cAF CDE [F3A,3]||

